X:1
T:Title
%%score 1 { 2 | 3 }
L:1/8
Q:1/4=130
M:3/2
K:C
V:1 treble nm="Grand Piano, Soprano"
V:2 bass nm="Choir Pad, Kandy, 87.87 D"
V:3 bass 
V:1
 [CE]3 [DF] [EG]6 [Ec]2 | [FA]2 [Fc]2 [EG]2 [CE]6 | [CE]2 [DF]2 [EG]6 [Gc]2 | [FB]2 [Ec]2 [Gd]8 | %4
w: By~Thomas~Hastings,~1867 * * *||||
 [CE]3 [DF] [EG]6 [Ec]2 | [FA]2 [Fc]2 [EG]2 [CE]6 | [Ec]3 [GB] [FA]6 [Fd]2 | [Ec]2 [DB]2 [Ec]8 | %8
w: ||||
 [DB]2 [Ec]2 [Fd]6 [Fd]2 | [Ec]2 [Fd]2 [Ge]3 [Fd] [Ec]4 | [DB]2 [Ec]2 [Dd]6 [Dd]2 | %11
w: |||
 [Ec]2 [^FA]2 G8 | [CE]3 [DF] [EG]6 [Ec]2 | [FA]2 [Fc]2 [EG]2 [CE]6 | [Ec]2 [GB]2 [FA]6 [Fd]2 | %15
w: ||||
 [Ec]2 [DB]2 [Ec]8- | [Ec]4 z4 z4 |] %17
w: ||
V:2
 G,3 G, C6 G,2 | C2 G,2 C2 G,6 | G,2 G,2 G,6 G,2 | G,2 G,2 B,8 | G,3 G,[K:treble] C6 G,2 | %5
 C2 A,2 C2[K:bass] G,6 | G,3 C C6 A,2 | G,2 G,2 G,8 | G,2 G,2 B,6 B,2 | C2 B,2 C4 G,4 | %10
 G,2 G,2 B,6 B,2 | C2 C2 B,8 | G,3 G,[K:treble] C6 C2 | C2 A,2 C2[K:bass] G,6 | G,2 C2 C6 A,2 | %15
 G,2 G,2 G,8- | G,4 z4 z4 |] %17
V:3
 C,3 C, C,6 C,2 | C,2 C,2 C,2 C,6 | C,2 C,2 C,6 E,2 | D,2 C,2 G,8 | C,3 C, C,6 C,2 | %5
 C,2 C,2 C,2 C,6 | C,3 E, F,6 F,2 | z4 C,8 | z4 G,6 G,2 | G,2 G,2 C,4 C,4 | D,2 C,2 G,6 G,2 | %11
 C,2 D,2 G,,8 | C,3 C, C,6 C,2 | C,2 C,2 C,2 C,6 | C,2 E,2 F,6 F,2 | z4 C,8- | C,4 z4 z4 |] %17

